X: 11
T: Forget Me Not
C: Larry Redican
Z: gian marco
S: https://thesession.org/tunes/233#setting51750
R: reel
M: 4/4
L: 1/8
K: Dmaj
|:AB/c/|d2cd BAFE|DB~B2 ABDE|FAde f2ed|Beed e/f/g fe|
d2cd BAFE|DB~B2 ABDE|FAdf ecdB|AFEG FD:|
|:AB/c/|d2ad bdad|gdfd edBd|Addc defg|afdf e2(3fga|
bafb afeg|fede efdB|ABdf e2dB|AFEG FD:|

